X:1
T:Farewell, false love! - East
T:#
%%score { 1 | 2 } 3 4 { ( 5 6 ) | ( 7 8 ) }
L:1/8
Q:1/4=108
M:4/4
K:C
V:1 treble nm="Soprano I" snm="S"
V:2 treble 
V:3 treble-8 nm="Tenor" snm="T"
V:4 bass nm="Bass" snm="B"
V:5 treble nm="Practice"
V:6 treble 
V:7 bass 
V:8 bass 
V:1
 z8 |"^Farewell, False Love!" z8 | z8 | z4 z2 B2 | c6 B2 | A4"^Michael East\n(c.1580-1648)" ^G4 | %6
w: |||Fare-|well, false|love, for|
[M:4/4] B2 A2 ^G4 | z8 | z4 z2 B2 | e4 d2 d2- | d2 c2 B3 B | A2 d2 ^c2 A2 | e6 d2 | c6 B2 | %14
w: so I find,||fare-|well, false love,|* for so I|find, I find, fare-|well, false|love, for|
 c2 B2 B2 A2 | ^G2 A2 A2 G2 |[M:4/4] A8 x4 |[M:4/4] z4 G8 | G3 E E2 c2 |[M:4/4] B2 B2 z4 | e8 | %21
w: so I find, for|so I find, I|find,|fare-|well, my hope mis-|tak- en,|fare-|
 d3 c B2 A2 | ^G2 G2 z4 | z2 c2 G3 F | E4 z2 c2 | G3 F E4 | z4 z2 d2 |[M:4/4] B8 x4 | %28
w: well, my hope mis-|tak- en,|fare- well, the|friend, fare-|well, the friend|that|proves|
[M:4/4] B4 B8 | z2 A2 G3 F | E2 e2 d2 c2 |[M:4/4] B2 z4 e2 | e2 c2 B2 B2 | A2 A2 z2 c2 | %34
w: un- kind,|fare- well, I|end, fare- well, I|end, fare-|well, I end for-|sak- en, fare-|
[M:4/4] G3 F E2 c2 x4 | G3 F x8 |[M:3/2] E4 z2 c2 G3 F | E4 z4 z2 d2 | B8 B4 |[M:3/2] B8 z2 A2 x8 | %40
w: well the friend, fare-|well, the|friend, fare- well, the|friend that|proves un-|kind, fare-|
 G3 F x4 |[M:4/4] E2 e2 d2 c2 | B2 z4 e2 | e2 c2 B2 B2 | A2 A2 z4 x4 | %45
w: well, I|end, fare- well, I|end, fare-|well, I end for-|sak- en,|
[M:3/2][Q:1/4=107][Q:1/4=107] z2[Q:1/4=105][Q:1/4=105] G2[Q:1/4=103][Q:1/4=103] G2[Q:1/4=102][Q:1/4=102] A2 z4 | %46
w: fare- well, I|
[Q:1/4=99][Q:1/4=99] E6[Q:1/4=96][Q:1/4=96] E2 z4 | %47
w: end for-|
[Q:1/4=94][Q:1/4=94] E2[Q:1/4=94][Q:1/4=94] !fermata!E6 z4 |] %48
w: sak- en.|
V:2
 A4 e4- | e2 d2 c2 B2 | A2 d2 c2 B2- | B2 A4 ^G2 | A4 z4 | z4 z2 B2 |[M:4/4] e2 c2 B2 B2 | e6 d2 | %8
w: Fare- well,|* false love, for|so I find, for|* so I|find,|for|so I find, fare-|well, false|
 c6 B2 | c2 B2 B2 A2 | ^G2 A2 A2 G2 | A8 | z8 | z4 z2 B2 | e4 d2 d2- | d2 c2 B3 B |[M:4/4] ^c8 z4 | %17
w: love for|so I find, for|so I find, I|find,||fare-|well, false love,|* for so I|find,|
[M:4/4] e8 x4 | d3 c B2 A2 |[M:4/4] ^G2 G2 z4 | c8 | d3 e e2 c2 | B2 B2 z2 c2 | G3 F E2 c2 | %24
w: fare-|well my hope mis-|tak- en,|fare-|well, my hope mis-|tak- en, fare-|well, the friend, fare-|
 G3 F E4 | z4 z2 c2 | G3 F E2 F2 |[M:4/4] E8 E4 |[M:4/4] E8 x4 | z8 | z2 c2 B2 A2 | %31
w: well, the friend,|fare-|well, the friend that|proves un-|kind,||fare- well, I|
[M:4/4] ^G2 e2 d2 c2 | B2 A2 B3 B | ^c2 c2 z4 |[M:4/4] z2 c2 G3 F E2 c2 | x12 |[M:3/2] G3 F E4 z4 | %37
w: end, fare- well, I|end, I end for-|sak- en,|fare- well, the friend, fare-||well, the friend,|
 z2 c2 G3 F E2 F2 | E8 E4 |[M:3/2] E8 x12 | z8 |[M:4/4] z2 c2 B2 A2 | ^G2 e2 d2 c2 | B2 A2 B3 B | %44
w: fare- well, the friend that|proves un-|kind,||fare- well, I|end, fare- well, I|end, I end for-|
 ^c2 c2 z4 x4 |[M:3/2] e4 B2 d2- z4 | d2 c2 B4 z4 | ^c2 !fermata!c6 z4 |] %48
w: sak- en,|fare- well, I|* end for-|sak- en.|
V:3
 z4 e4 | a6 g2 | f4 e4 | d2 c2 B4 | z2 A2 e4- | e2 d2 e2 e2 |[M:4/4][K:treble-8] e3 e e4 | %7
w: Fare-|well, false|love, for|so I find,|fare- well,|* false love, for|so I find,|
 z2 c2 g4- | g2 f2 e4 | z4 z2 A2 | e6 e2 | e2 f2 e4 | z2 c2 g4- | g2 f2 e4 | z4 z2 A2 | e6 e2 | %16
w: fare- well,|* false love,|for|so I|find, I find,|fare- well,|* false love,|for|so I|
[M:3/2] e8 z4 |[M:4/4] c8 x4 | B3 A ^G2 A2 |[M:4/4][K:treble-8] e2 e2 g4- | g8 | g3 e e2 e2 | %22
w: find,|fare-|well, my hope mis-|tak- en, fare\-||well, my hope mis-|
 e2 e2 c4 | c2 c2 c4 | z2 c2 G3 F | E2 c2 G3 F | E4 z2 A2 |[M:3/2] ^G8 G4 |[M:4/4] ^G8 x4 | %29
w: tak- en, fare-|well, the friend,|fare- well, the|friend, fare- well, the|friend, that|proves un-|kind,|
 A2 c4 B2 | c4 z4 |[M:4/4][K:treble-8] z2 c2 B2 A2 | ^G2 A2 A2 G2 | A2 A2 c4- | %34
w: fare- well, I|end,|fare- well, I|end, I end for-|sak- en, fare\-|
[M:3/2] c4 c2 c2 c4 |[M:3/2][K:treble-8] z2 c2 G3 F E2 c2 | G3 F E4 z2 A2 | ^G8 G4 | %38
w: * well, the friend,|fare- well, the friend, fare-|well, the friend, that|proves un-|
[M:4/4] ^G8 x4 | A2 c4 B2 x12 |[M:4/4][K:treble-8] c4 z4 | z2 c2 B2 A2 | ^G2 A2 A2 G2 | A2 A2 c4 | %44
w: kind,|fare- well, I|end,|fare- well, I|end, I end for-|sak- en, fare-|
[M:3/2][K:treble-8] B2 (B4 A2 z4 | ^G2 A4) G2 z4 | A2 !fermata!A6 z4 | x12 |] %48
w: well, I *|* end for-|sak- en.||
V:4
 z8 | z8 | z8 | z4 E,4 | A,6 G,2 | F,4 E,4 |[M:4/4] ^G,2 A,2 E,2 E,2 | C6 B,2 | A,6 G,2 | %9
w: |||Fare-|well, false|love, for|so I find, fare-|well, false|love, for|
 A,2 E,2 G,2 D,2 | E,6 E,2 | ^C,2 D,2 A,,2 A,2 | C6 B,2 | A,6 ^G,2 | A,2 E,2 G,2 D,2 | E,6 E,2 | %16
w: so I find, for|so I|find, I find, fare-|well, false|love, for|so I find, for|so I|
[M:3/2] A,,8 z4 |[M:4/4] z8 x4 | z8 |[M:4/4] z8 | C,8 | B,,3 A,, ^G,,2 A,,2 | E,2 E,2 z4 | z8 | %24
w: find,||||fare-|well, my hope mis-|tak- en,||
 C,8 | C,2 C,2 C,4- | C,4 z2 D,2 |[M:3/2] E,8 E,4 |[M:4/4] E,8 x4 | F,4 E,2 D,2 | C,4 D,4 | %31
w: fare-|well, the friend,|* that|proves un-|kind,|fare- well, I|end, fare-|
[M:4/4] E,4 E,4 | E,6 E,2 | A,,2 A,,2 z4 |[M:3/2] z8 z4 |[M:3/2] C,8 C,2 C,2 | C,4- C,4 z2 D,2 | %37
w: well, I|end for-|sak- en,||fare- well, the|friend, * that|
 E,8 E,4 |[M:4/4] E,8 x4 | F,4 E,2 D,2 x12 |[M:4/4] C,4 D,4 | E,4 E,4 | E,6 E,2 | A,,2 A,,2 A,4 | %44
w: proves un-|kind,|fare- well, I|end, fare-|well, I|end for-|sak en, fare-|
[M:3/2] E,2 G,4 D,2 z4 | E,8 z4 | A,,2 !fermata!A,,6 z4 | x12 |] %48
w: well, I end|for-|sak- en.||
V:5
 x8 | x8 | x8 | x4 x2 B2 | c6 B2 | A4 ^G2- G2 |[M:4/4] B2 A2 ^G4 | x8 | x4 x2 B2 | e4 d2 d2- | %10
 d2 c2 B3 B | A2 d2 ^c2 A2 | e6 d2 | c6 B2 | c2 B2 B2 A2 | ^G2 A2 A2 G2 |[M:4/4] A8 x4 | %17
[M:4/4] z4 G8 | G3 E E2 c2 |[M:4/4] B2 B2 x4 | e8 | d3 c B2 A2 | ^G2 G2 x4 | z2 c2 G3 F | %24
 E4 z2 c2 | G3 F E4 | x4 x2 d2 |[M:4/4] B8 x4 |[M:4/4] B4 B8 | z2 A2 G3 F | E2 e2 d2 c2 | %31
[M:4/4] B2 x4 e2 | e2 c2 B2 B2 | A2 A2 z2 =c2 |[M:4/4] G3 F E2 c2 x4 | G3 F x8 | %36
[M:3/2] E4 z2 c2 G3 F | E4 x4 x2 d2 | B8 B4 |[M:3/2] B8 z2 A2 x8 | G3 F x4 |[M:4/4] E2 e2 d2 c2 | %42
 B2 x4 e2 | e2 c2 B2 B2 | A2 A2 z4 z4 |[M:4/4] z2 G2 G2 A2 | E6 E2 z4 | E2 E6 z4 |] %48
V:6
 A4 e4- | e2 d2 c2 B2 | A2 d2 c2 B2- | B2 A4 ^G2 | A4 x4 | x4 x2 B2 |[M:4/4] e2 c2 B2 B2 | e6 d2 | %8
 c6 B2 | c2 B2 B2 A2 | ^G2 A2 A2 G2 | A8 | x8 | x4 x2 B2 | e4 d2 d2- | d2 c2 B3 B |[M:4/4] ^c8 x4 | %17
[M:4/4] z4 e8 | d3 c B2 A2 |[M:4/4] ^G2 G2 x4 | c8 | d3 e e2 c2 | B2 B2 z2 c2 | G3 F E2 c2 | %24
 G3 F E4 | x4 z2 c2 | G3 F E2 F2 |[M:4/4] E8 x4 |[M:4/4] E4 E8 | x8 | x2 c2 B2 A2 | %31
[M:4/4] ^G2 e2 d2 c2 | B2 A2 B3 B | ^c2 c2 x4 |[M:4/4] z2 c2 G3 F x4 | E2 c2 x8 | %36
[M:3/2] G3 F E4 x4 | z2 c2 G3 F E2 F2 | E8 E4 |[M:3/2] E8 x8 x4 | x8 |[M:4/4] x2 c2 B2 A2 | %42
 ^G2 e2 d2 c2 | B2 A2 B3 B | ^c2 c2 z4 x4 |[M:4/4] e4 B2 d2- | d2 c2 B4 x4 | ^c2 !fermata!c6 x4 |] %48
V:7
 x4[I:staff -1] E4 | A6 G2 | F4 E4 | D2[I:staff +1] C2 B,4 | x2 x2[I:staff -1] E4- | E2 D2 E2 E2 | %6
[M:4/4] E3 E E4 |[I:staff +1] x2 x2[I:staff -1] G4- | G2 F2 E4 |[I:staff +1] x4 x2 A,2 | E6 E2 | %11
[I:staff -1] E2 F2 E4 |[I:staff +1] x2 x2[I:staff -1] G4- | G2 F2 E4 |[I:staff +1] x4 x2 A,2 | %15
 E6 E2 |[M:4/4][I:staff -1] E8[I:staff +1] z4 |[M:4/4] C8 x4 | B,3 A, ^G,2 A,2 | %19
[M:4/4][I:staff -1] E2 E2 G4- | G8 | G3 E E2 E2 | E2 E2[I:staff +1] C4 | C2 C2 C4 | z2 C2 G,3 F, | %25
 E,2 C2 G,3 F, | E,4 z2 A,2 |[M:4/4] ^G,8 G,4 |[M:4/4] ^G,8 x4 | A,2 C4 B,2 | C4 x4 | %31
[M:4/4] z2 C2 B,2 A,2 | ^G,2 A,2 A,2 G,2 | A,2 A,2 C4- |[M:4/4] C4 C2 C2 C4 | x12 | %36
[M:3/2] z2 C2 G,3 F, E,2 C2 | G,3 F, E,4 z2 A,2 | ^G,8 G,4 |[M:3/2] ^G,8 x12 | A,2 C4 B,2 | %41
[M:4/4] C4 x4 | z2 C2 B,2 A,2 | ^G,2 A,2 A,2 G,2 | A,2 A,2 C4 z4 |[M:4/4] B,2 B,4 A,2 | %46
 ^G,2 A,4 G,2 z4 | A,2 A,6 z4 |] %48
V:8
 z8 | z8 | z8 | x4 E,4 | A,6 G,2 | F,4 E,4 |[M:4/4] ^G,2 A,2 E,2 E,2 | C6 B,2 | A,6 G,2 | %9
 A,2 E,2 G,2 D,2 | E,6 E,2 | ^C,2 D,2 A,,2 A,2 | C6 B,2 | A,6 ^G,2 | A,2 E,2 G,2 D,2 | E,6 E,2 | %16
[M:4/4] A,,8 z4 |[M:4/4] x8 x4 | x8 |[M:4/4] z8 | C,8 | B,,3 A,, ^G,,2 A,,2 | E,2 E,2 x4 | x8 | %24
 C,8 | C,2 C,2 C,4- | C,4 z2 D,2 |[M:4/4] E,8 E,4 |[M:4/4] E,8 x4 | F,4 E,2 D,2 | C,4 D,4 | %31
[M:4/4] E,4 E,4 | E,6 E,2 | A,,2 A,,2 x4 |[M:4/4] x8 x4 | x12 |[M:3/2] C,8 C,2 C,2 | %37
 C,4- C,4 z2 D,2 | E,8 E,4 |[M:3/2] E,8 x12 | F,4 E,2 D,2 |[M:4/4] C,4 D,4 | E,4 E,4 | E,6 E,2 | %44
 A,,2 A,,2 A,4 x4 |[M:4/4] E,2 G,4 D,2 | E,8 x4 | A,,2 !fermata!A,,6 x4 |] %48

